alternatives/Adwaita-Color/24/places/folder-purple-download.svg

<?xml version="1.0" encoding="UTF-8" standalone="no"?>
<!-- Created with Inkscape (http://www.inkscape.org/) -->

<svg
   width="24"
   height="24"
   viewBox="0 0 24 24"
   version="1.1"
   id="svg5"
   inkscape:version="1.4.3 (0d15f75042, 2025-12-25)"
   sodipodi:docname="folder-purple-download.svg"
   xmlns:inkscape="http://www.inkscape.org/namespaces/inkscape"
   xmlns:sodipodi="http://sodipodi.sourceforge.net/DTD/sodipodi-0.dtd"
   xmlns="http://www.w3.org/2000/svg"
   xmlns:svg="http://www.w3.org/2000/svg">
  <sodipodi:namedview
     id="namedview7"
     pagecolor="#ffffff"
     bordercolor="#000000"
     borderopacity="0.25"
     inkscape:showpageshadow="2"
     inkscape:pageopacity="0.0"
     inkscape:pagecheckerboard="0"
     inkscape:deskcolor="#d1d1d1"
     inkscape:document-units="px"
     showgrid="false"
     inkscape:zoom="23.375"
     inkscape:cx="12"
     inkscape:cy="12.02139"
     inkscape:window-width="1440"
     inkscape:window-height="831"
     inkscape:window-x="0"
     inkscape:window-y="0"
     inkscape:window-maximized="1"
     inkscape:current-layer="svg5" />
  <defs
     id="defs2" />
  <path
     id="path2024"
     style="opacity:0.2;fill:#000000;stroke-width:4;stroke-linecap:square"
     d="M 3.5,4.5 A 1.5,1.5 0 0 0 2,6 v 14 a 1.5,1.5 0 0 0 1.5,1.5 h 17 A 1.5,1.5 0 0 0 22,20 V 9 A 1.5,1.5 0 0 0 20.5,7.5 h -8 L 11.5,6 C 10.885394,5.0780908 10.607997,4.5 9.5,4.5 Z" />
  <path
     id="path2052"
     style="fill:#893092;fill-opacity:1;stroke-width:4;stroke-linecap:square"
     d="M 3.5,4 C 2.6715729,4 2,4.6715729 2,5.5 v 14 C 2,20.328427 2.6715729,21 3.5,21 h 17 C 21.328427,21 22,20.328427 22,19.5 V 8.5 C 22,7.6715729 21.328427,7 20.5,7 h -8 l -1,-1.5 C 10.885394,4.5780908 10.607997,4 9.5,4 Z" />
  <path
     id="path447"
     style="opacity:0.1;fill:#ffffff;fill-opacity:1;stroke-width:4;stroke-linecap:square"
     d="M 3.5,4 C 2.6715737,4 2,4.6715737 2,5.5 V 6 C 2,5.1715737 2.6715737,4.5 3.5,4.5 h 6 c 1.107996,0 1.385395,0.5780917 2,1.5 l 1,1.5 h 8 C 21.328426,7.5 22,8.1715737 22,9 V 8.5 C 22,7.6715737 21.328426,7 20.5,7 h -8 l -1,-1.5 C 10.885395,4.5780917 10.607996,4 9.5,4 Z" />
  <rect
     style="opacity:0.2;fill:#000000;fill-opacity:1;stroke-width:4;stroke-linecap:square"
     id="rect2667"
     width="20"
     height="11"
     x="2"
     y="9.5"
     ry="1.5" />
  <rect
     style="fill:#f2f2f2;fill-opacity:1;stroke-width:1.5;stroke-linecap:square"
     id="rect3435"
     width="18"
     height="9"
     x="3"
     y="8"
     ry="1" />
  <rect
     style="opacity:1;fill:#dda7e1;fill-opacity:1;stroke-width:4;stroke-linecap:square"
     id="rect2072"
     width="20"
     height="11"
     x="2"
     y="10"
     ry="1.5" />
  <path
     d="m 13,12 v 3 h 1.25 L 12,17.5 9.7499999,15 H 11 V 12 Z M 8.9999999,18 H 15 v 1 H 8.9999999 Z"
     style="opacity:1;fill:#c061cb;fill-opacity:1"
     id="path308" />
</svg>

<?xml version="1.0" encoding="UTF-8" standalone="no"?>
<!-- Created with Inkscape (http://www.inkscape.org/) -->

<svg
   width="24"
   height="24"
   viewBox="0 0 24 24"
   version="1.1"
   id="svg5"
   inkscape:version="1.2.2 (1:1.2.2+202305151914+b0a8486541)"
   sodipodi:docname="folder-purple-download.svg"
   xmlns:inkscape="http://www.inkscape.org/namespaces/inkscape"
   xmlns:sodipodi="http://sodipodi.sourceforge.net/DTD/sodipodi-0.dtd"
   xmlns="http://www.w3.org/2000/svg"
   xmlns:svg="http://www.w3.org/2000/svg">
  <sodipodi:namedview
     id="namedview7"
     pagecolor="#ffffff"
     bordercolor="#000000"
     borderopacity="0.25"
     inkscape:showpageshadow="2"
     inkscape:pageopacity="0.0"
     inkscape:pagecheckerboard="0"
     inkscape:deskcolor="#d1d1d1"
     inkscape:document-units="px"
     showgrid="false"
     inkscape:zoom="34.583333"
     inkscape:cx="12"
     inkscape:cy="12"
     inkscape:window-width="1920"
     inkscape:window-height="1008"
     inkscape:window-x="0"
     inkscape:window-y="0"
     inkscape:window-maximized="1"
     inkscape:current-layer="svg5" />
  <defs
     id="defs2" />
  <path
     id="path2024"
     style="opacity:0.2;fill:#000000;stroke-width:4;stroke-linecap:square"
     d="M 3.5 4.5 A 1.5 1.5 0 0 0 2 6 L 2 20 A 1.5 1.5 0 0 0 3.5 21.5 L 20.5 21.5 A 1.5 1.5 0 0 0 22 20 L 22 9 A 1.5 1.5 0 0 0 20.5 7.5 L 12.5 7.5 L 11.5 6 C 10.885394 5.0780908 10.607997 4.5 9.5 4.5 L 3.5 4.5 z " />
  <path
     id="path2052"
     style="fill:#613583;fill-opacity:1;stroke-width:4;stroke-linecap:square"
     d="M 3.5,4 C 2.6715729,4 2,4.6715729 2,5.5 v 14 C 2,20.328427 2.6715729,21 3.5,21 h 17 C 21.328427,21 22,20.328427 22,19.5 V 8.5 C 22,7.6715729 21.328427,7 20.5,7 h -8 l -1,-1.5 C 10.885394,4.5780908 10.607997,4 9.5,4 Z" />
  <path
     id="path447"
     style="fill:#ffffff;fill-opacity:1;stroke-width:4;stroke-linecap:square;opacity:0.1"
     d="M 3.5 4 C 2.6715737 4 2 4.6715737 2 5.5 L 2 6 C 2 5.1715737 2.6715737 4.5 3.5 4.5 L 9.5 4.5 C 10.607996 4.5 10.885395 5.0780917 11.5 6 L 12.5 7.5 L 20.5 7.5 C 21.328426 7.5 22 8.1715737 22 9 L 22 8.5 C 22 7.6715737 21.328426 7 20.5 7 L 12.5 7 L 11.5 5.5 C 10.885395 4.5780917 10.607996 4 9.5 4 L 3.5 4 z " />
  <rect
     style="opacity:0.2;fill:#000000;fill-opacity:1;stroke-width:4;stroke-linecap:square"
     id="rect2667"
     width="20"
     height="11"
     x="2"
     y="9.5"
     ry="1.5" />
  <rect
     style="fill:#f2f2f2;fill-opacity:1;stroke-width:1.5;stroke-linecap:square"
     id="rect3435"
     width="18"
     height="9"
     x="3"
     y="8"
     ry="1" />
  <rect
     style="opacity:1;fill:#c061cb;fill-opacity:1;stroke-width:4;stroke-linecap:square"
     id="rect2072"
     width="20"
     height="11"
     x="2"
     y="10"
     ry="1.5" />
  <path
     d="m 13,12 v 3 h 1.25 L 12,17.5 9.7499999,15 H 11 V 12 Z M 8.9999999,18 H 15 v 1 H 8.9999999 Z"
     style="fill:#000000;opacity:0.5"
     id="path308" />
</svg>
